public/images/online-course.svg

<svg height="512" viewBox="0 0 512 512" width="512" xmlns="http://www.w3.org/2000/svg"><g id="Online_course" data-name="Online course"><path d="m247 272-3.75 2.31-35.25-24.98v-1.33z" fill="#57a4ff"/><path d="m496 104v240a32 32 0 0 1 -32 32 32 32 0 0 1 -32 32v-224h-416v-16a32 32 0 0 1 32-32 32 32 0 0 1 32-32 32 32 0 0 1 32-32h352a32 32 0 0 1 32 32z" fill="#57a4ff"/><path d="m247 272-3.75 2.31-35.25-24.98v-1.33z" fill="#57a4ff"/><path d="m136 224v128h176v-128zm107.25 50.31-35.25 21.69v-48l39 24z" fill="#57a4ff"/><path d="m247 272-3.75 2.31-35.25-24.98v-1.33z" fill="#57a4ff"/><path d="m247 272-3.75 2.31-35.25-24.98v-1.33z" fill="#57a4ff"/><g fill="#004fac"><path d="m464 64h-352a40.058 40.058 0 0 0 -39.317 32.683 40.1 40.1 0 0 0 -32 32 40.058 40.058 0 0 0 -32.683 39.317v240a40.045 40.045 0 0 0 40 40h352a40.058 40.058 0 0 0 39.317-32.683 40.1 40.1 0 0 0 32-32 40.058 40.058 0 0 0 32.683-39.317v-240a40.045 40.045 0 0 0 -40-40zm-440 104a24.027 24.027 0 0 1 24-24h352a24.027 24.027 0 0 1 24 24v8h-400zm400 240a24.027 24.027 0 0 1 -24 24h-352a24.027 24.027 0 0 1 -24-24v-216h400zm32-32a24.038 24.038 0 0 1 -16 22.624v-230.624a40.045 40.045 0 0 0 -40-40h-342.624a24.038 24.038 0 0 1 22.624-16h352a24.027 24.027 0 0 1 24 24zm32-32a24.038 24.038 0 0 1 -16 22.624v-230.624a40.045 40.045 0 0 0 -40-40h-342.624a24.038 24.038 0 0 1 22.624-16h352a24.027 24.027 0 0 1 24 24z"/><circle cx="48" cy="160" r="8"/><circle cx="80" cy="160" r="8"/><circle cx="112" cy="160" r="8"/><path d="m136 360h176a8 8 0 0 0 8-8v-128a8 8 0 0 0 -8-8h-176a8 8 0 0 0 -8 8v128a8 8 0 0 0 8 8zm8-128h160v112h-160z"/><path d="m204.1 302.983a8 8 0 0 0 8.095-.17l39-24a8 8 0 0 0 0-13.626l-39-24a8 8 0 0 0 -12.195 6.813v48a8 8 0 0 0 4.1 6.983zm11.9-40.667 15.736 9.684-15.736 9.684z"/><path d="m280 312h-16a8 8 0 0 0 -16 0h-80a8 8 0 0 0 0 16h80a8 8 0 0 0 16 0h16a8 8 0 0 0 0-16z"/><path d="m136 384h176a8 8 0 0 0 0-16h-176a8 8 0 0 0 0 16z"/><path d="m136 408h112a8 8 0 0 0 0-16h-112a8 8 0 0 0 0 16z"/><path d="m280 392h-8a8 8 0 0 0 0 16h8a8 8 0 0 0 0-16z"/></g></g></svg>

<?xml version="1.0"?>
<svg xmlns="http://www.w3.org/2000/svg" xmlns:xlink="http://www.w3.org/1999/xlink" xmlns:svgjs="http://svgjs.com/svgjs" version="1.1" width="512" height="512" x="0" y="0" viewBox="0 0 512 512" style="enable-background:new 0 0 512 512" xml:space="preserve"><g><g xmlns="http://www.w3.org/2000/svg" id="Online_course" data-name="Online course"><path d="M464,64H112A40.058,40.058,0,0,0,72.683,96.683a40.1,40.1,0,0,0-32,32A40.058,40.058,0,0,0,8,168V408a40.045,40.045,0,0,0,40,40H400a40.058,40.058,0,0,0,39.317-32.683,40.1,40.1,0,0,0,32-32A40.058,40.058,0,0,0,504,344V104A40.045,40.045,0,0,0,464,64ZM24,168a24.027,24.027,0,0,1,24-24H400a24.027,24.027,0,0,1,24,24v8H24ZM424,408a24.027,24.027,0,0,1-24,24H48a24.027,24.027,0,0,1-24-24V192H424Zm32-32a24.038,24.038,0,0,1-16,22.624V168a40.045,40.045,0,0,0-40-40H57.376A24.038,24.038,0,0,1,80,112H432a24.027,24.027,0,0,1,24,24Zm32-32a24.038,24.038,0,0,1-16,22.624V136a40.045,40.045,0,0,0-40-40H89.376A24.038,24.038,0,0,1,112,80H464a24.027,24.027,0,0,1,24,24Z" fill="#ffffff" data-original="#000000" style=""/><circle cx="48" cy="160" r="8" fill="#ffffff" data-original="#000000" style=""/><circle cx="80" cy="160" r="8" fill="#ffffff" data-original="#000000" style=""/><circle cx="112" cy="160" r="8" fill="#ffffff" data-original="#000000" style=""/><path d="M136,360H312a8,8,0,0,0,8-8V224a8,8,0,0,0-8-8H136a8,8,0,0,0-8,8V352A8,8,0,0,0,136,360Zm8-128H304V344H144Z" fill="#ffffff" data-original="#000000" style=""/><path d="M204.1,302.983a8,8,0,0,0,8.095-.17l39-24a8,8,0,0,0,0-13.626l-39-24A8,8,0,0,0,200,248v48A8,8,0,0,0,204.1,302.983ZM216,262.316,231.736,272,216,281.684Z" fill="#ffffff" data-original="#000000" style=""/><path d="M280,312H264a8,8,0,0,0-16,0H168a8,8,0,0,0,0,16h80a8,8,0,0,0,16,0h16a8,8,0,0,0,0-16Z" fill="#ffffff" data-original="#000000" style=""/><path d="M136,384H312a8,8,0,0,0,0-16H136a8,8,0,0,0,0,16Z" fill="#ffffff" data-original="#000000" style=""/><path d="M136,408H248a8,8,0,0,0,0-16H136a8,8,0,0,0,0,16Z" fill="#ffffff" data-original="#000000" style=""/><path d="M280,392h-8a8,8,0,0,0,0,16h8a8,8,0,0,0,0-16Z" fill="#ffffff" data-original="#000000" style=""/></g></g></svg>
